X: 3220
T: NOTHING CAN SADDEN US
%R: jig
B: James Kerr "Merry Melodies" v.3 p.25 #220
Z: 2016 John Chambers <jc:trillian.mit.edu>
M: 6/8
L: 1/8
K: A
|:\
vc3 BAB | ABA Ace |\
fga e2c | dBB Bed |\
c3  BAB | ABA Ace |
fga e2d | cAA A3 H::\
cde eee | ef=g f^ga |\
edc cBA |[1 GBB Bcd :|[2 GBB Bed |]

%%sep 1 1 500
%%sep 1 1 500

